apps/32/preferences-desktop-theme-applications.svg

<svg width="32" height="32" version="1.1" viewBox="0 0 32 32" xmlns="http://www.w3.org/2000/svg" xmlns:xlink="http://www.w3.org/1999/xlink">
<defs>
<linearGradient id="linearGradient3403" x1="6.9492" x2="11.215" y1="4.5549" y2="59.052" gradientUnits="userSpaceOnUse">
<stop style="stop-color:#32373c" offset="0"/>
<stop style="stop-color:#1a1a1a" offset=".36805"/>
<stop style="stop-color:#31363b" offset="1"/>
</linearGradient>
<linearGradient id="linearGradient20558" x1="25.802" x2="25.111" y1="20.374" y2="58.913" gradientUnits="userSpaceOnUse">
<stop style="stop-color:#3d3d3d" offset="0"/>
<stop offset=".61772"/>
<stop style="stop-color:#3d3d3d" offset="1"/>
</linearGradient>
<linearGradient id="linearGradient4557" x1="43.5" x2="44.142" y1="64.012" y2=".30621" gradientTransform="translate(.36068 -.13017)" gradientUnits="userSpaceOnUse">
<stop style="stop-color:#141618" offset="0"/>
<stop style="stop-color:#686868" offset=".51821"/>
<stop style="stop-color:#31363b" offset="1"/>
</linearGradient>
<linearGradient id="c" x2="0" y1="543.8" y2="502.66" gradientTransform="matrix(.5 0 0 .46417 -209.98 -215.48)" gradientUnits="userSpaceOnUse">
<stop stop-color="#c6cdd1" offset="0"/>
<stop stop-color="#e0e5e7" offset="1"/>
</linearGradient>
<linearGradient id="d" x1="431.16" x2="465.16" y1="511.39" y2="543.93" gradientTransform="matrix(1 0 0 .86047 -424.16 -425.03)" gradientUnits="userSpaceOnUse" xlink:href="#b"/>
<linearGradient id="b">
<stop offset="0"/>
<stop stop-opacity="0" offset="1"/>
</linearGradient>
<linearGradient id="f" x1="392.57" x2="407.57" y1="521.8" y2="536.8" gradientTransform="matrix(1.2609 0 0 1.2609 -480.89 -642.18)" gradientUnits="userSpaceOnUse">
<stop offset="0"/>
<stop stop-opacity="0" offset="1"/>
</linearGradient>
<linearGradient id="g" x1="393.41" x2="407.41" y1="526.65" y2="526.65" gradientTransform="matrix(1.2609 0 0 1.2608 -480.7 -647.03)" gradientUnits="userSpaceOnUse">
<stop stop-color="#2e3436" offset="0"/>
<stop stop-color="#555753" offset="1"/>
</linearGradient>
</defs>
<g transform="matrix(.665 0 0 .665 -37.95 1.8345)">
<g transform="matrix(.87311 0 0 1.1629 61.318 -6.6102)">
<rect y="5" width="48" height="38" rx="5" ry="5" style="fill:url(#c)"/>
<path d="m1.1 41c0.132 0.172 0.208 0.386 0.36 0.54a4.989 4.989 0 0 0 3.54 1.46h38a5.005 5.005 0 0 0 3.54-1.46c0.152-0.154 0.228-0.368 0.36-0.54z" style="fill:#99a1a7"/>
<path d="m33 17.389-12.908 9.981 13.628 13.63h8.28c0.554 0 1.082-0.11 1.56-0.313 0.112-0.046 0.19-0.142 0.295-0.199l2.112-3.324c2e-3 -0.058 0.033-0.106 0.033-0.164v-6.611zm-12 12.011-2 4.077-4 1.523 6 6h11.6z" style="fill-rule:evenodd;fill:url(#d);opacity:.2"/>
<path d="m6 43h37a5.005 5.005 0 0 0 3.54-1.46 4.989 4.989 0 0 0 1.46-3.54v-20l-3.24-3.24-41.52 25.48z" style="fill-rule:evenodd;fill:url(#d);opacity:.2"/>
<path d="m5 5a5.005 5.005 0 0 0-3.54 1.46 4.989 4.989 0 0 0-1.46 3.54v1h48v-1a5.005 5.005 0 0 0-1.46-3.54 4.989 4.989 0 0 0-3.54-1.46z" style="fill:#566069"/>
<path d="m0 11h48v1h-48z" style="fill:#3daee9"/>
<rect x="40" y="6" width="4" height="3.0208" rx="2" style="fill:#eff0f1;stroke-width:.86903"/>
<rect x="2" y="14" width="44" height="27" ry="4" style="fill:#fff"/>
<path d="m32.819 17.172c0.857 0.865-1.588 4.705-5.462 8.58-1.5 1.5-3.067 2.85-4.47 3.858l8.847 8.82h11.348l1.255-9.741zm-12.417 9.898-0.022 0.016 5e-3 5e-3zm0.172 0.214 2.148 2.161a3.799 3.799 0 0 0-2.148-2.161zm0.877 2.041c0.533 0.49 0.504 1.187 0.504 1.644 0 1.474-2.201 3.682-6.62 3.682l3.79 3.779h11.348z" style="fill:url(#f);opacity:.25;stroke-width:1.261"/>
<path d="m32.453 17.008a2.207 9.93 44.998 0 0-8.213 5.623 2.207 9.93 44.998 0 0-3.909 4.54 3.83 3.83 0 0 1 2.49 2.49 2.207 9.93 44.998 0 0 4.54-3.909 2.207 9.93 44.998 0 0 5.459-8.58 2.207 9.93 44.998 0 0-0.366-0.164m-12.703 11.756c-4.413 1.183-1.103 3.977-4.413 5.888 4.417 0 6.62-2.209 6.62-3.681 0-0.733 0.075-2.084-2.207-2.207z" style="fill:url(#g);stroke-width:1.261"/>
</g>
</g>
<path transform="matrix(.5 0 0 .5 .066304 .016549)" d="m4.7043 3.9815-0.012938 56.82h53.904l1.0222-2.8664s-23.875 0.76639-32.844-4.1404c-10.516-5.7529-15.372-49.697-15.372-49.697z" style="fill:url(#linearGradient3403);mix-blend-mode:normal;stroke-linejoin:round;stroke-width:1.1624;stroke:url(#linearGradient20558)"/>
<rect transform="matrix(.46839 0 0 .46744 .90638 1.0269)" x="1.0324" y=".59551" width="62.567" height="62.867" rx="5.803" ry="6.2447" style="fill:none;stroke-linejoin:round;stroke-miterlimit:7.8;stroke-opacity:.99515;stroke-width:3.7137;stroke:url(#linearGradient4557)"/>
</svg>

<?xml version="1.0" encoding="UTF-8" standalone="no"?>
<!-- Created with Inkscape (http://www.inkscape.org/) -->

<svg
   width="32"
   height="32"
   version="1.1"
   viewBox="0 0 32 32"
   id="svg22"
   xmlns:xlink="http://www.w3.org/1999/xlink"
   xmlns="http://www.w3.org/2000/svg"
   xmlns:svg="http://www.w3.org/2000/svg">
  <defs
     id="defs12">
    <linearGradient
       xlink:href="#linearGradient3487"
       id="linearGradient3403"
       gradientUnits="userSpaceOnUse"
       x1="6.9491749"
       y1="4.5549412"
       x2="11.215498"
       y2="59.052471" />
    <linearGradient
       id="linearGradient3487">
      <stop
         style="stop-color:#32373c;stop-opacity:1"
         offset="0"
         id="stop3481" />
      <stop
         id="stop3483"
         offset="0.36804965"
         style="stop-color:#1a1a1a;stop-opacity:1" />
      <stop
         style="stop-color:#31363b;stop-opacity:1"
         offset="1"
         id="stop3485" />
    </linearGradient>
    <linearGradient
       xlink:href="#linearGradient20604"
       id="linearGradient20558"
       gradientUnits="userSpaceOnUse"
       x1="25.802212"
       y1="20.373846"
       x2="25.111048"
       y2="58.912758" />
    <linearGradient
       id="linearGradient20604">
      <stop
         id="stop20598"
         offset="0"
         style="stop-color:#3d3d3d;stop-opacity:1" />
      <stop
         style="stop-color:#000000;stop-opacity:1"
         offset="0.61772454"
         id="stop20600" />
      <stop
         id="stop20602"
         offset="1"
         style="stop-color:#3d3d3d;stop-opacity:1" />
    </linearGradient>
    <filter
       style="color-interpolation-filters:sRGB"
       id="filter20720"
       x="-0.017024755"
       y="-0.016457183"
       width="1.0340491"
       height="1.0329144">
      <feGaussianBlur
         stdDeviation="0.14745661"
         id="feGaussianBlur20722" />
    </filter>
    <linearGradient
       gradientTransform="translate(0.36067797,-0.13016949)"
       xlink:href="#linearGradient4555"
       id="linearGradient4557"
       x1="43.499737"
       y1="64.011795"
       x2="44.141731"
       y2="0.30621234"
       gradientUnits="userSpaceOnUse" />
    <linearGradient
       id="linearGradient4555">
      <stop
         style="stop-color:#141618;stop-opacity:1"
         offset="0"
         id="stop4551" />
      <stop
         id="stop4559"
         offset="0.51820582"
         style="stop-color:#686868;stop-opacity:1" />
      <stop
         style="stop-color:#31363b;stop-opacity:1"
         offset="1"
         id="stop4553" />
    </linearGradient>
    <filter
       style="color-interpolation-filters:sRGB"
       id="filter4601"
       x="-0.030244955"
       width="1.0604899"
       y="-0.030100647"
       height="1.0602013">
      <feGaussianBlur
         stdDeviation="0.014790289"
         id="feGaussianBlur4603" />
    </filter>
    <linearGradient
       y2="502.655"
       x2="0"
       y1="543.79797"
       gradientTransform="matrix(0.5,0,0,0.46417,-209.978,-215.479)"
       gradientUnits="userSpaceOnUse"
       id="c"
       xlink:href="#a" />
    <linearGradient
       id="a">
      <stop
         stop-color="#c6cdd1"
         id="stop8" />
      <stop
         offset="1"
         stop-color="#e0e5e7"
         id="stop10" />
    </linearGradient>
    <linearGradient
       xlink:href="#b"
       id="d"
       gradientUnits="userSpaceOnUse"
       gradientTransform="matrix(1,0,0,0.86047,-424.16,-425.032)"
       x1="431.16101"
       y1="511.38901"
       x2="465.16101"
       y2="543.92902" />
    <linearGradient
       id="b">
      <stop
         id="stop2-9" />
      <stop
         offset="1"
         stop-opacity="0"
         id="stop4-7" />
    </linearGradient>
    <linearGradient
       id="f"
       x1="392.57001"
       x2="407.57001"
       y1="521.79999"
       y2="536.79999"
       gradientTransform="matrix(1.26086,0,0,1.26086,-480.893,-642.181)"
       gradientUnits="userSpaceOnUse">
      <stop
         offset="0"
         id="stop15" />
      <stop
         stop-opacity="0"
         offset="1"
         id="stop17" />
    </linearGradient>
    <linearGradient
       id="g"
       x1="393.41"
       x2="407.41"
       y1="526.65002"
       y2="526.65002"
       gradientTransform="matrix(1.26086,0,0,1.26085,-480.699,-647.027)"
       gradientUnits="userSpaceOnUse">
      <stop
         stop-color="#2e3436"
         offset="0"
         id="stop20" />
      <stop
         stop-color="#555753"
         offset="1"
         id="stop22" />
    </linearGradient>
    <linearGradient
       xlink:href="#b"
       id="linearGradient180538"
       gradientUnits="userSpaceOnUse"
       gradientTransform="matrix(1,0,0,0.86047,-424.16,-425.032)"
       x1="431.16101"
       y1="511.38901"
       x2="465.16101"
       y2="543.92902" />
  </defs>
  <g
     id="g856"
     transform="matrix(0.665,0,0,0.665,-37.950441,1.8344721)">
    <g
       id="g180561"
       transform="matrix(0.87311143,0,0,1.1628878,61.317826,-6.610241)">
      <rect
         y="5"
         height="38"
         width="48"
         rx="5"
         ry="5"
         id="rect27"
         style="fill:url(#c)"
         x="0" />
      <path
         d="m 1.1,41 c 0.132,0.172 0.208,0.386 0.36,0.54 A 4.989,4.989 0 0 0 5,43 h 38 a 5.005,5.005 0 0 0 3.54,-1.46 C 46.692,41.386 46.768,41.172 46.9,41 Z"
         id="path29"
         style="fill:#99a1a7" />
      <path
         d="M 33,17.389 20.092,27.37 33.72,41 H 42 c 0.554,0 1.082,-0.11 1.56,-0.313 0.112,-0.046 0.19,-0.142 0.295,-0.199 l 2.112,-3.324 C 45.969,37.106 46,37.058 46,37 V 30.389 Z M 21,29.4 19,33.477 15,35 l 6,6 h 11.6 z"
         id="path31"
         style="opacity:0.2;fill:url(#linearGradient180538);fill-rule:evenodd" />
      <path
         d="M 6,43 H 43 A 5.005,5.005 0 0 0 46.54,41.54 4.989,4.989 0 0 0 48,38 V 18 L 44.76,14.76 3.24,40.24 Z"
         id="path33"
         style="opacity:0.2;fill:url(#d);fill-rule:evenodd" />
      <path
         d="M 5,5 A 5.005,5.005 0 0 0 1.46,6.46 4.989,4.989 0 0 0 0,10 v 1 H 48 V 10 A 5.005,5.005 0 0 0 46.54,6.46 4.989,4.989 0 0 0 43,5 Z"
         id="path35"
         style="fill:#566069" />
      <path
         d="m 0,11 h 48 v 1 H 0 Z"
         id="path37"
         style="fill:#3daee9" />
      <rect
         width="4"
         height="3.0208335"
         x="40"
         y="6"
         rx="2"
         id="rect39"
         style="fill:#eff0f1;stroke-width:0.869027" />
      <rect
         width="44"
         height="27"
         x="2"
         y="14"
         ry="4"
         id="rect41"
         style="fill:#ffffff" />
      <path
         d="m 32.819,17.172 c 0.857,0.865 -1.588,4.705 -5.462,8.58 -1.5,1.5 -3.067,2.85 -4.47,3.858 l 8.847,8.82 h 11.348 l 1.255,-9.741 z m -12.417,9.898 -0.022,0.016 0.005,0.005 z m 0.172,0.214 2.148,2.161 a 3.799,3.799 0 0 0 -2.148,-2.161 z m 0.877,2.041 c 0.533,0.49 0.504,1.187 0.504,1.644 0,1.474 -2.201,3.682 -6.62,3.682 l 3.79,3.779 h 11.348 z"
         id="path43"
         style="opacity:0.25;fill:url(#f);stroke-width:1.261" />
      <path
         d="m 32.453,17.008 a 2.207,9.93 44.998 0 0 -8.213,5.623 2.207,9.93 44.998 0 0 -3.909,4.54 3.83,3.83 0 0 1 2.49,2.49 2.207,9.93 44.998 0 0 4.54,-3.909 2.207,9.93 44.998 0 0 5.459,-8.58 2.207,9.93 44.998 0 0 -0.366,-0.164 M 19.751,28.764 c -4.413,1.183 -1.103,3.977 -4.413,5.888 4.417,0 6.62,-2.209 6.62,-3.681 0,-0.733 0.075,-2.084 -2.207,-2.207 z"
         id="path45"
         style="fill:url(#g);stroke-width:1.261" />
    </g>
  </g>
  <path
     style="display:inline;mix-blend-mode:normal;fill:url(#linearGradient3403);fill-opacity:1;stroke:url(#linearGradient20558);stroke-width:1.16242;stroke-linecap:butt;stroke-linejoin:round;stroke-miterlimit:4;stroke-dasharray:none;stroke-opacity:1;filter:url(#filter20720)"
     d="M 4.7043071,3.9814882 4.6913695,60.80196 H 58.59546 l 1.022155,-2.866369 c 0,0 -23.87537,0.766388 -32.844441,-4.140386 C 16.257548,48.042344 11.401114,4.0978197 11.401114,4.0978197 Z"
     id="path1686"
     transform="matrix(0.5,0,0,0.5,0.06630362,0.01654936)" />
  <rect
     style="display:inline;fill:none;fill-opacity:1;stroke:url(#linearGradient4557);stroke-width:3.71366;stroke-linejoin:round;stroke-miterlimit:7.8;stroke-dasharray:none;stroke-opacity:0.995146;filter:url(#filter4601)"
     id="rect4539"
     width="62.566689"
     height="62.866646"
     x="1.0323594"
     y="0.59551275"
     ry="6.2447233"
     rx="5.8029528"
     transform="matrix(0.46839137,0,0,0.46743669,0.90638486,1.0268972)" />
</svg>
